64x64/apps/kpersonalizer.svg

<svg height="64" width="64" xmlns="http://www.w3.org/2000/svg"><path d="m6.8 57a2.783 2.783 0 0 1 -2.8-2.778v-3.222h56v3.222a2.783 2.783 0 0 1 -2.8 2.778z" fill="#253951"/><path d="m6.801 7a2.783 2.783 0 0 0 -2.8 2.777v41.223h56v-41.22a2.783 2.783 0 0 0 -2.8-2.778h-50.401z" fill="#1e88e5"/><path d="m6.8 7a2.783 2.783 0 0 0 -2.8 2.777v1a2.783 2.783 0 0 1 2.8-2.777h50.4c1.55 0 2.8 1.238 2.8 2.777v-1a2.784 2.784 0 0 0 -2.8-2.777z" fill="#f4f4f7" opacity=".1"/><rect height="16" opacity=".2" rx="1.5" ry="1.334" width="24" x="20" y="24"/><path d="m20 27v10.668c0 .738.668 1.332 1.5 1.332h21c.832 0 1.5-.594 1.5-1.332v-10.668z" fill="#f4f4f7"/><path d="m21.5 23h21c.832 0 1.5.594 1.5 1.334v2.666h-24v-2.667c0-.738.67-1.333 1.5-1.333z" fill="#253951"/><rect height="6" opacity=".2" rx=".75" width="6" x="6" y="34"/><rect height="6" opacity=".2" rx=".75" width="6" x="6" y="10"/><rect fill="#f4f4f7" height="6" rx=".75" width="6" x="6" y="9"/><rect height="6" opacity=".2" rx=".75" width="6" x="6" y="18"/><rect fill="#f4f4f7" height="6" rx=".75" width="6" x="6" y="17"/><rect height="6" opacity=".2" rx=".75" width="6" x="6" y="26"/><rect fill="#f4f4f7" height="6" rx=".75" width="6" x="6" y="25"/><rect fill="#f4f4f7" height="6" rx=".75" width="6" x="6" y="33"/><path d="m4 54.223v1c0 1.54 1.25 2.777 2.8 2.777h50.401a2.782 2.782 0 0 0 2.799-2.777v-1a2.782 2.782 0 0 1 -2.799 2.777h-50.4a2.782 2.782 0 0 1 -2.801-2.777z" opacity=".2"/></svg>

<svg xmlns="http://www.w3.org/2000/svg" width="64" height="64"><path style="fill:#253951" d="M6.8 57A2.783 2.783 0 0 1 4 54.222V51h56v3.222A2.783 2.783 0 0 1 57.2 57z"/><path style="fill:#1e88e5" d="M6.801 7a2.783 2.783 0 0 0-2.8 2.777V51h56V9.78a2.783 2.783 0 0 0-2.8-2.778H6.8z"/><path style="opacity:.1;fill:#f4f4f7" d="M6.8 7A2.783 2.783 0 0 0 4 9.777v1A2.783 2.783 0 0 1 6.8 8h50.4c1.55 0 2.8 1.238 2.8 2.777v-1A2.784 2.784 0 0 0 57.2 7H6.8z"/><rect style="opacity:.2" width="24" height="16" x="20" y="24" rx="1.5" ry="1.334"/><path style="fill:#f4f4f7" d="M20 27v10.668c0 .738.668 1.332 1.5 1.332h21c.832 0 1.5-.594 1.5-1.332V27H20z"/><path style="fill:#253951" d="M21.5 23h21c.832 0 1.5.594 1.5 1.334V27H20v-2.667c0-.738.67-1.333 1.5-1.333z"/><rect style="opacity:.2" width="6" height="6" x="6" y="34" rx=".75" ry=".75"/><rect style="opacity:.2" width="6" height="6" x="6" y="10" rx=".75" ry=".75"/><rect style="fill:#f4f4f7" width="6" height="6" x="6" y="9" rx=".75" ry=".75"/><rect style="opacity:.2" width="6" height="6" x="6" y="18" rx=".75" ry=".75"/><rect style="fill:#f4f4f7" width="6" height="6" x="6" y="17" rx=".75" ry=".75"/><rect style="opacity:.2" width="6" height="6" x="6" y="26" rx=".75" ry=".75"/><rect style="fill:#f4f4f7" width="6" height="6" x="6" y="25" rx=".75" ry=".75"/><rect style="fill:#f4f4f7" width="6" height="6" x="6" y="33" rx=".75" ry=".75"/><path style="opacity:.2" d="M4 54.223v1C4 56.763 5.25 58 6.8 58h50.401A2.782 2.782 0 0 0 60 55.223v-1A2.782 2.782 0 0 1 57.201 57h-50.4A2.782 2.782 0 0 1 4 54.223z"/></svg>
